X:1701
M:4/4
L:1/8
K:Am
V:1
|:A2 EE E2 AB|c2 AA A2 Ac|e2 e2 de f2| e4-e3 e|d2 Bc d2 de|c2 cB A2 Ac|e2 ee d2 c2| B4-B2 (3BcB|A2 EE E2 AB| c2 AA A2 Ac| e2 e2 de f2| e4-e2 ef|g2 gg a2 gf|efec A2 ac|e2 d2 c2 B2| A4 A4::a2 b2 a3 e|g2 f2 e4|edef edcB|ABcd e3 e|a2 b2 a3 e|g2 f2 e4 |edef edcB| A2 A2 A4:| 

V:2
|:A2 AA A2 cd|e2 ed c2 ce| B2 B2 Bc d2| c4 B3 B|B2 GA B2 BC| A2 AG E2 FA|c2 cc B2 A2|(B2 E4) z2 |A2 AA A2 cd |e2 ed c2 ce| B2 B2 Bc d2| (c4 B2)cd|d2 de f2 ed|cdca E2 FA| c2 B2 A2 G2|E3 C DEFG::A2 B2 c3 c|e2 d2 c4|B2 cd B2 AG| F2 GA B3 B|A2 B2 c3 c|e2 d2 c4|cBcd cBAG|e2 e2 e4:|

(:musicend:)
(:music:)
